packages/kaspersky-hexa-ui-icons/src/iconsSVGs/32/StatusErrorSolid.svg

<svg xmlns="http://www.w3.org/2000/svg" width="32" height="32" fill="none" viewBox="0 0 32 32"><path fill="#000" fill-rule="evenodd" d="M16 30c7.732 0 14-6.268 14-14S23.732 2 16 2 2 8.268 2 16s6.268 14 14 14m4.2071-18.2071c-.3905-.3905-1.0237-.3905-1.4142 0L16 14.5858l-2.7929-2.7929c-.3905-.3905-1.0237-.3905-1.4142 0s-.3905 1.0237 0 1.4142L14.5858 16l-2.7929 2.7929c-.3905.3905-.3905 1.0237 0 1.4142s1.0237.3905 1.4142 0L16 17.4142l2.7929 2.7929c.3905.3905 1.0237.3905 1.4142 0s.3905-1.0237 0-1.4142L17.4142 16l2.7929-2.7929c.3905-.3905.3905-1.0237 0-1.4142"/></svg>

<svg width="32" height="32" viewBox="0 0 32 32" fill="none" xmlns="http://www.w3.org/2000/svg">
<path fill-rule="evenodd" clip-rule="evenodd" d="M16 30C23.732 30 30 23.732 30 16C30 8.26801 23.732 2 16 2C8.26801 2 2 8.26801 2 16C2 23.732 8.26801 30 16 30ZM20.2071 11.7929C19.8166 11.4024 19.1834 11.4024 18.7929 11.7929L16 14.5858L13.2071 11.7929C12.8166 11.4024 12.1834 11.4024 11.7929 11.7929C11.4024 12.1834 11.4024 12.8166 11.7929 13.2071L14.5858 16L11.7929 18.7929C11.4024 19.1834 11.4024 19.8166 11.7929 20.2071C12.1834 20.5976 12.8166 20.5976 13.2071 20.2071L16 17.4142L18.7929 20.2071C19.1834 20.5976 19.8166 20.5976 20.2071 20.2071C20.5976 19.8166 20.5976 19.1834 20.2071 18.7929L17.4142 16L20.2071 13.2071C20.5976 12.8166 20.5976 12.1834 20.2071 11.7929Z" fill="black"/>
</svg>
